gtk/icons/scalable/places/network-server-symbolic.svg

<?xml version="1.0" encoding="UTF-8"?>
<svg height="16px" viewBox="0 0 16 16" width="16px">
  <path d="M 6.99218798 12.2708378 C 6.70385027 12.4383917, 6.45736885 12.6778479, 6.28125 12.9726562 L 2.99609399 12.9726562 C 2.44140601 12.9726562, 1.99609399 13.421875, 1.99609399 13.9726562 C 1.99609399 14.5234385, 2.44140601 14.9726562, 2.99609399 14.9726562 L 6.24218798 14.9726562 C 6.59375 15.6132812, 7.265625 16.0078125, 7.99609423 16.0117188 C 8.72265625 16.0078125, 9.39453125 15.6132812, 9.74609375 14.9726562 L 13.0078115 14.9726562 C 13.5585938 14.9726562, 14.0078115 14.5234385, 14.0078115 13.9726562 C 14.0078115 13.421875, 13.5585938 12.9726562, 13.0078115 12.9726562 L 9.71484375 12.9726562 C 9.53670311 12.6776724, 9.28905678 12.4381056, 9 12.2705383 L 9 10.984375 L 11.9921885 10.984375 C 14.2109385 10.984375, 16 9.19921875, 16 6.98046923 L 16 4.00781202 C 16 1.78906202, 14.2109385 0, 11.9921885 0 L 4.00781202 0 C 1.78906202 0, -1.77635684e-15 1.78906202, -1.77635684e-15 4.00781202 L 0 6.98046923 C 0 9.19921875, 1.78906202 10.984375, 4.00781202 10.984375 L 6.99218798 10.984375 L 6.99218798 12.2708378 Z M 7.99609423 13 C 8.55078125 13, 9 13.4492188, 9 14.0078115 C 9 14.5625, 8.55078125 15.0117188, 7.99609423 15.0117188 C 7.4375 15.0117188, 6.98828077 14.5625, 6.98828077 14.0078115 C 6.98828077 13.4492188, 7.4375 13, 7.99609423 13 Z M 11.9921885 2 C 13.1054688 2, 14 2.89453101, 14 4.00781202 L 14 6.98046923 C 14 8.08984375, 13.1054688 8.984375, 11.9921885 8.984375 L 4.00781202 8.984375 C 2.89453101 8.984375, 2 8.08984375, 2 6.98046923 L 2 4.00781202 C 2 2.89453101, 2.89453101 2, 4.00781202 2 L 11.9921885 2 Z M 6 5 C 6 4.44921923, 5.55078077 4, 5 4 C 4.44921923 4, 4 4.44921923, 4 5 C 4 5.55078077, 4.44921923 6, 5 6 C 5.55078077 6, 6 5.55078077, 6 5 Z M 9 5 C 9 4.44921923, 8.55078125 4, 8 4 C 7.44921923 4, 7 4.44921923, 7 5 C 7 5.55078077, 7.44921923 6, 8 6 C 8.55078125 6, 9 5.55078077, 9 5 Z"/>
</svg>

<?xml version="1.0" encoding="UTF-8"?>
<svg height="16px" viewBox="0 0 16 16" width="16px" xmlns="http://www.w3.org/2000/svg">
    <g fill="#2e3436">
        <path d="m 7.996094 12 c -0.703125 0 -1.355469 0.371094 -1.714844 0.972656 h -3.285156 c -0.554688 0 -1 0.449219 -1 1 c 0 0.550782 0.445312 1 1 1 h 3.246094 c 0.351562 0.640625 1.023437 1.035156 1.753906 1.039063 c 0.726562 -0.003907 1.398437 -0.398438 1.75 -1.039063 h 3.261718 c 0.550782 0 1 -0.449218 1 -1 c 0 -0.550781 -0.449218 -1 -1 -1 h -3.292968 c -0.363282 -0.601562 -1.015625 -0.972656 -1.71875 -0.972656 z m 0 1 c 0.554687 0 1.003906 0.449219 1.003906 1.007812 c 0 0.554688 -0.449219 1.003907 -1.003906 1.003907 c -0.558594 0 -1.007813 -0.449219 -1.007813 -1.003907 c 0 -0.558593 0.449219 -1.007812 1.007813 -1.007812 z m 0 0"/>
        <path d="m 6.992188 10 h 2.007812 v 3 h -2.007812 z m 0 0"/>
        <path d="m 11.992188 2 c 1.113281 0 2.007812 0.894531 2.007812 2.007812 v 2.972657 c 0 1.109375 -0.894531 2.003906 -2.007812 2.003906 h -7.984376 c -1.113281 0 -2.007812 -0.894531 -2.007812 -2.003906 v -2.972657 c 0 -1.113281 0.894531 -2.007812 2.007812 -2.007812 z m -11.992188 2.007812 v 2.972657 c 0 2.21875 1.789062 4.003906 4.007812 4.003906 h 7.984376 c 2.21875 0 4.007812 -1.785156 4.007812 -4.003906 v -2.972657 c 0 -2.21875 -1.789062 -4.007812 -4.007812 -4.007812 h -7.984376 c -2.21875 0 -4.007812 1.789062 -4.007812 4.007812 z m 0 0"/>
        <path d="m 5 4 c 0.550781 0 1 0.449219 1 1 s -0.449219 1 -1 1 s -1 -0.449219 -1 -1 s 0.449219 -1 1 -1 z m 0 0"/>
        <path d="m 8 4 c 0.550781 0 1 0.449219 1 1 s -0.449219 1 -1 1 s -1 -0.449219 -1 -1 s 0.449219 -1 1 -1 z m 0 0"/>
    </g>
</svg>
